X:1200
T:(untitled)
C:John Malchair's Third Collection of Tunes
F:https://www.vwml.org/record/Malchair/3619/p120
F:www.vwml.org/topics/historic-dance-and-tune-books/Malchair
Z:Eric Conrad Feb 2020
N:NB1 Repeats added.
N:NB2 Some harmony notes have been obscured by MS erasures and corrections.
N:NB3 MS unclear: "[GA]dd", "Add" and "Gdd" are all possible readings.
N:NB4 MS has chord "[ceg]", with possible removal of "[eg]".
N:NB5 MS has stem up "c2x" over stem down "ceg", but marked suggesting that the stem up note is wrong.
W:Austrian tune played by [?] Oxford Militia band Oxon March 1800.
M:6/8
L:1/16
K:C
P:A
|: "_NB1,2"g2 | e2efg2 e2efg2 | f2e2f2 d4f2 | e2c2c2 A2d2d2 | B2dcBA G4g2 |
e2efg2 g2c'2g2 | f2e2f2 d4f2 | e2c2c2 A2d2d2 | B2AGAB "_NB4"c4 :|
P:B
|: e2 | g2d2B2 c2e2g2 | f2d2B2 c4de | f2d2B2 "_NB5"c2e2g2 | g2agfe d4f2 |
e2efg2 e2efg2 | f2e2f2 d4f2 | e2c2c2 A2d2d2 | B2dcBA G4g2 |
e2efg2 g2c'2g2 | f2e2f2 d4f2 | e2c2c2 A2d2d2 | B2AGAB c4 :|


